X: 1
T:Grafton Hornpipe
M:2/4
L:1/16
S:The Maritime Fiddler
N:by Bob Jones
K:G
|:G,B,DG Bdgd|cAGE C2^E=E|DFAB cAFA|1GABG D2CA,:|2GBAF "fine"G4B4||!
K:D G>E|:DEFG ABAF|DFBF A2FE|DEFG ABAF|DEFD E2FE|!
 DEFG ABAF|DFBF A2Bc|dAFD BAFD|1EDCE D2FE:||2EDCE D2B,A,||!
